build/img/features/feature-3.svg

<svg width="83" height="82" viewBox="0 0 83 82" fill="none" xmlns="http://www.w3.org/2000/svg">
<g clip-path="url(#clip0)">
<path d="M67.7103 6.04063L47.2975 0.581912C45.8866 0.205009 44.4412 1.04075 44.0621 2.45101L43.3811 4.99843L68.8982 11.8219L69.5794 9.27429C69.9553 7.86482 69.119 6.41722 67.7103 6.04063Z" fill="#07BBF0"/>
<path d="M79.3757 75.7351L57.2591 75.7465L58.9814 69.3184L61.5352 70.0039C62.7928 70.3899 64.3736 69.63 64.7742 68.1357C65.1432 66.7269 64.3149 65.2834 62.9062 64.9143L60.3525 64.2288L63.0765 54.0143L65.6301 54.6997C67.2229 55.0656 68.5211 54.1297 68.8693 52.8316C69.2383 51.4228 68.41 49.9793 67.001 49.5926L64.4474 48.9071L67.1715 38.7103L69.7251 39.3957C71.3112 39.7615 72.6145 38.8309 72.9641 37.5276C73.3334 36.1188 72.5048 34.6576 71.0961 34.2886L68.5424 33.6031L71.2647 23.3956L73.8225 24.0796C75.2396 24.4595 76.6834 23.6105 77.0579 22.2105C77.4339 20.801 76.5974 19.3536 75.1888 18.977L34.3614 8.05938C32.9479 7.68343 31.5037 8.51917 31.126 9.92848C30.7501 11.3379 31.5866 12.7854 32.9951 13.162L35.5511 13.8455L32.8272 24.0599L30.2735 23.3744C28.8648 22.9877 27.4034 23.8338 27.0344 25.2426C26.6654 26.6514 27.4937 28.0949 28.9024 28.4641L31.4561 29.1495L28.7321 39.364L26.1785 38.6786C24.7697 38.3096 23.3083 39.1379 22.9393 40.5467C22.5703 41.9556 23.3986 43.3991 24.8076 43.7858L27.3612 44.4712L24.6371 54.668L22.0835 53.9826C20.6747 53.6136 19.2138 54.4419 18.8445 55.8507C18.4752 57.2596 19.3038 58.7208 20.7125 59.0898L23.2663 59.7752L18.9954 75.7661L3.65842 75.774C2.19662 75.7749 1.01767 76.9552 1.01842 78.4168C1.01916 79.8608 2.19934 81.0576 3.66114 81.0568L79.3786 81.0178C80.8402 81.0171 82.0193 79.819 82.0186 78.3751C82.0177 76.9133 80.8375 75.7344 79.3757 75.7351ZM53.9061 26.9543C54.2928 25.5454 55.7537 24.717 57.1451 25.0861C58.5538 25.4728 59.3998 26.9163 59.0131 28.3252L58.3456 30.8787L53.2382 29.5079L53.9061 26.9543ZM43.7091 24.2304C44.0781 22.8215 45.5393 21.9931 46.9482 22.3622C48.357 22.7314 49.1855 24.1924 48.8162 25.6012L48.1309 28.1373L43.0237 26.7841L43.7091 24.2304ZM39.614 39.5345C39.9833 38.1257 41.4442 37.2972 42.8532 37.6664C44.2621 38.0531 45.0905 39.4966 44.7215 40.9054L44.0359 43.459L38.9289 42.0881L39.614 39.5345ZM36.5315 71.5309L35.4069 75.7576L29.9304 75.7604L31.4244 70.1601C31.8112 68.7512 33.2547 67.9228 34.6635 68.2919C36.0722 68.6609 36.9006 70.1221 36.5315 71.5309ZM40.6266 56.2092L39.9411 58.7628L34.8339 57.3919L35.5194 54.8559C35.8887 53.4471 37.3496 52.601 38.7584 52.9878C40.1673 53.3569 40.9956 54.8004 40.6266 56.2092ZM46.7284 74.255L46.3242 75.752L40.8656 75.7548L41.6391 72.8841C42.0081 71.4753 43.4692 70.6468 44.8606 71.016C46.2691 71.4027 47.115 72.8462 46.7284 74.255ZM50.8234 58.9509L50.1379 61.5045L45.0483 60.1336L45.7338 57.58C46.1028 56.1711 47.5638 55.3427 48.9552 55.7118C50.3641 56.081 51.2101 57.5245 50.8234 58.9509ZM54.9183 43.6295L54.2505 46.183L49.1434 44.8122L49.811 42.2761C50.1977 40.8496 51.6588 40.0213 53.0502 40.3903C54.459 40.777 55.3052 42.2205 54.9183 43.6295Z" fill="#5D5D5D"/>
</g>
<defs>
<clipPath id="clip0">
<rect width="81" height="81" fill="white" transform="translate(1.26758) rotate(0.37728)"/>
</clipPath>
</defs>
</svg>

<svg width="83" height="82" fill="none" xmlns="http://www.w3.org/2000/svg"><g clip-path="url(#clip0)"><path d="M67.71 6.04L47.298.583a2.642 2.642 0 0 0-3.236 1.869l-.68 2.547 25.516 6.824.681-2.548a2.642 2.642 0 0 0-1.869-3.233z" fill="#07BBF0"/><path d="M79.376 75.735l-22.117.011 1.722-6.428 2.554.686c1.258.386 2.839-.374 3.24-1.868a2.63 2.63 0 0 0-1.869-3.222l-2.553-.685 2.724-10.215 2.553.686c1.593.366 2.891-.57 3.24-1.868A2.657 2.657 0 0 0 67 49.592l-2.554-.685 2.724-10.197 2.554.686c1.586.365 2.89-.565 3.24-1.868.368-1.41-.46-2.87-1.869-3.24l-2.554-.685 2.723-10.207 2.558.684a2.642 2.642 0 0 0 1.366-5.103L34.36 8.059a2.642 2.642 0 1 0-1.366 5.103l2.556.683-2.724 10.215-2.553-.686a2.635 2.635 0 0 0-3.24 1.869 2.63 2.63 0 0 0 1.868 3.221l2.554.686-2.724 10.214-2.553-.685c-1.41-.37-2.87.459-3.24 1.868a2.657 2.657 0 0 0 1.869 3.239l2.553.685-2.724 10.197-2.553-.685c-1.41-.37-2.87.459-3.24 1.868-.369 1.409.46 2.87 1.868 3.239l2.554.685-4.27 15.991-15.338.008a2.638 2.638 0 0 0-2.64 2.643c.001 1.444 1.181 2.64 2.643 2.64l75.718-.04a2.65 2.65 0 0 0 2.64-2.642 2.638 2.638 0 0 0-2.643-2.64zm-25.47-48.78a2.665 2.665 0 0 1 3.24-1.869c1.408.387 2.254 1.83 1.867 3.24l-.667 2.553-5.108-1.371.668-2.554zM43.71 24.23c.37-1.409 1.83-2.237 3.24-1.868 1.408.37 2.236 1.83 1.867 3.24l-.685 2.535-5.107-1.353.685-2.554zm-4.095 15.305c.37-1.41 1.83-2.238 3.24-1.869a2.657 2.657 0 0 1 1.867 3.24l-.685 2.553-5.107-1.37.685-2.554zM36.532 71.53l-1.125 4.227-5.477.002 1.494-5.6a2.657 2.657 0 0 1 3.24-1.868c1.408.369 2.237 1.83 1.867 3.239zm4.095-15.322l-.686 2.554-5.107-1.371.685-2.536a2.635 2.635 0 0 1 3.24-1.868 2.63 2.63 0 0 1 1.868 3.221zm6.101 18.046l-.404 1.497-5.458.003.773-2.87c.37-1.41 1.83-2.238 3.222-1.869 1.408.387 2.254 1.83 1.867 3.239zm4.095-15.304l-.685 2.553-5.09-1.37.686-2.554c.369-1.409 1.83-2.237 3.221-1.868a2.627 2.627 0 0 1 1.868 3.239zm4.095-15.322l-.667 2.554-5.108-1.37.668-2.537a2.662 2.662 0 0 1 3.24-1.886c1.408.387 2.254 1.83 1.867 3.24z" fill="#5D5D5D"/></g><defs><clipPath id="clip0"><path fill="#fff" transform="rotate(.377 .634 192.5)" d="M0 0h81v81H0z"/></clipPath></defs></svg>
